symbols/web/vaping_rooms/materialsymbolsrounded/vaping_rooms_wght600gradN25_24px.svg

<svg xmlns="http://www.w3.org/2000/svg" height="24" width="24"><path d="M6.9 19.375q-.975-.25-1.95-.375T3 18.875q-.5 0-.837-.337-.338-.338-.338-.838 0-.5.338-.838.337-.337.837-.337.975 0 1.95-.125t1.95-.35Zm1.325 0v-3.35H20.4q.7 0 1.2.487.5.488.5 1.188 0 .675-.5 1.175t-1.2.5Zm2.35-1.05q.25 0 .425-.188.175-.187.175-.437T11 17.275q-.175-.175-.425-.175t-.437.175q-.188.175-.188.425t.188.437q.187.188.437.188Zm8.125-3.35q-.35 0-.575-.225-.225-.225-.225-.575v-.45q0-.925-.575-1.463-.575-.537-1.35-.537H14.45q-1.425 0-2.412-1.013-.988-1.012-.988-2.437 0-1.175.713-2.088.712-.912 1.812-1.187.35-.075.613.15.262.225.262.625 0 .25-.187.475-.188.225-.513.375-.475.2-.8.65-.325.45-.325 1.025 0 .775.538 1.312.537.538 1.287.538h1.525q1.45 0 2.475.937 1.025.938 1.025 2.313v.775q0 .35-.212.575-.213.225-.563.225Zm2.575 0q-.325 0-.562-.225-.238-.225-.238-.575V12.75q0-1.45-.875-2.513-.875-1.062-2.25-1.337-.35-.1-.575-.325-.225-.225-.225-.55 0-.275.2-.525t.575-.45q.45-.225.737-.663.288-.437.288-.962 0-.575-.312-1.025-.313-.45-.813-.675-.3-.125-.487-.35-.188-.225-.188-.5 0-.4.275-.625.275-.225.625-.15 1.1.275 1.813 1.2.712.925.712 2.125 0 .775-.3 1.4-.3.625-.8 1Q20.2 8.3 21.15 9.662q.95 1.363.95 3.088v1.425q0 .35-.237.575-.238.225-.588.225Z"/></svg>

<svg xmlns="http://www.w3.org/2000/svg" height="24" width="24"><path d="M6.9 19.375Q5.925 19.125 4.95 19Q3.975 18.875 3 18.875Q2.5 18.875 2.163 18.538Q1.825 18.2 1.825 17.7Q1.825 17.2 2.163 16.862Q2.5 16.525 3 16.525Q3.975 16.525 4.95 16.4Q5.925 16.275 6.9 16.05ZM8.225 19.375V16.025H20.4Q21.1 16.025 21.6 16.512Q22.1 17 22.1 17.7Q22.1 18.375 21.6 18.875Q21.1 19.375 20.4 19.375ZM10.575 18.325Q10.825 18.325 11 18.137Q11.175 17.95 11.175 17.7Q11.175 17.45 11 17.275Q10.825 17.1 10.575 17.1Q10.325 17.1 10.138 17.275Q9.95 17.45 9.95 17.7Q9.95 17.95 10.138 18.137Q10.325 18.325 10.575 18.325ZM18.7 14.975Q18.35 14.975 18.125 14.75Q17.9 14.525 17.9 14.175V13.725Q17.9 12.8 17.325 12.262Q16.75 11.725 15.975 11.725H14.45Q13.025 11.725 12.038 10.712Q11.05 9.7 11.05 8.275Q11.05 7.1 11.763 6.187Q12.475 5.275 13.575 5Q13.925 4.925 14.188 5.15Q14.45 5.375 14.45 5.775Q14.45 6.025 14.263 6.25Q14.075 6.475 13.75 6.625Q13.275 6.825 12.95 7.275Q12.625 7.725 12.625 8.3Q12.625 9.075 13.163 9.612Q13.7 10.15 14.45 10.15H15.975Q17.425 10.15 18.45 11.087Q19.475 12.025 19.475 13.4V14.175Q19.475 14.525 19.263 14.75Q19.05 14.975 18.7 14.975ZM21.275 14.975Q20.95 14.975 20.713 14.75Q20.475 14.525 20.475 14.175V12.75Q20.475 11.3 19.6 10.237Q18.725 9.175 17.35 8.9Q17 8.8 16.775 8.575Q16.55 8.35 16.55 8.025Q16.55 7.75 16.75 7.5Q16.95 7.25 17.325 7.05Q17.775 6.825 18.062 6.387Q18.35 5.95 18.35 5.425Q18.35 4.85 18.038 4.4Q17.725 3.95 17.225 3.725Q16.925 3.6 16.738 3.375Q16.55 3.15 16.55 2.875Q16.55 2.475 16.825 2.25Q17.1 2.025 17.45 2.1Q18.55 2.375 19.263 3.3Q19.975 4.225 19.975 5.425Q19.975 6.2 19.675 6.825Q19.375 7.45 18.875 7.825Q20.2 8.3 21.15 9.662Q22.1 11.025 22.1 12.75V14.175Q22.1 14.525 21.863 14.75Q21.625 14.975 21.275 14.975Z"/></svg>
